X:1
T: Lady Elizabeth Bowes-Lyon of Strathmore
C:
R:Strathspey
Q: 128
K:Bb
M:4/4
L:1/16
F4|B,3D F3G F3G FD3|B,3D F3G FD3 D3C|B,3D F3G F3G FD3|E3G F3B, DC3 C3D|
B,3D F3G F3G FD3|B,3D F3G FD3 D3F|GFGA B3G FD3 D3B,|E3G F3B, DC3 C4|
f3g fd3 f3g fd3|f3d f3g fd3 d3e|f3g fd3 f3g fd3|e3g f3B dc3 c3d|
f3g fd3 f3g fd3|f3d f3g fd3 d3f|gfga b3g fd3 d3f|1e3g f3B dc3 cd3:|2eg3 f3d B4 B,4||
